img/insurance__insure.svg

<svg width="26" height="27" viewBox="0 0 26 27" fill="none" xmlns="http://www.w3.org/2000/svg">
<path d="M7.61734 6.69727H10.1562H12.6952C12.9372 6.69727 13.1634 6.57677 13.3085 6.37559C14.418 4.83738 14.9805 3.1359 14.9805 1.31836V0.791016C14.9805 0.354164 14.6394 0 14.2188 0C12.808 0 10.968 0.948797 10.1562 1.41043C9.34451 0.948797 7.50445 0 6.09375 0C5.67308 0 5.33203 0.354164 5.33203 0.791016V1.31836C5.33203 3.1359 5.89454 4.83738 7.004 6.37559C7.14909 6.57677 7.37537 6.69727 7.61734 6.69727Z" fill="#304BAB"/>
<path d="M10.7458 18.3237V20.5633C11.135 20.3452 11.3661 19.9425 11.4279 19.5608C11.4721 19.2881 11.4902 18.6335 10.7458 18.3237Z" fill="#304BAB"/>
<path d="M9.09355 15.4685C9.04013 15.7628 9.10884 16.0369 9.26849 16.167C9.33095 16.2179 9.40118 16.2677 9.47639 16.3165V14.8276C9.25463 14.9887 9.13387 15.2465 9.09355 15.4685Z" fill="#304BAB"/>
<path d="M14.3203 19.9512V16.0266C14.3203 14.9304 15.0796 14.0074 16.1257 13.8318C16.6667 13.7409 17.1374 13.3905 17.3962 12.8905C16.305 11.3233 15.0204 9.86381 13.7467 8.51629C13.6035 8.36467 13.4076 8.2793 13.2031 8.2793H7.10938C6.90488 8.2793 6.70902 8.36467 6.56576 8.51623C3.31901 11.9513 0 16.1132 0 20.9355L5.07813e-05 20.9923C0.00716016 24.305 2.6453 27 5.88103 27H14.4315C15.3361 27 16.194 26.7892 16.9608 26.4132C15.3099 24.7575 14.3203 22.4453 14.3203 19.9512ZM12.68 19.7792C12.5831 20.3777 12.2932 20.933 11.8636 21.3428C11.5424 21.6493 11.163 21.8591 10.7459 21.9651V22.4648C10.7459 22.8289 10.4618 23.124 10.1112 23.124C9.76056 23.124 9.47639 22.8289 9.47639 22.4648V22.0267C8.94461 21.9811 8.50703 21.8354 7.8846 21.4126C7.59124 21.2133 7.50897 20.8048 7.70087 20.5001C7.89278 20.1954 8.28613 20.11 8.57954 20.3093C8.93948 20.5538 9.16922 20.6582 9.47639 20.7005V17.8047C9.05526 17.6051 8.74179 17.4133 8.48499 17.2041C7.94854 16.7672 7.70362 16.0085 7.84596 15.2242C8.0012 14.3688 8.57431 13.6883 9.34172 13.4483C9.38707 13.4341 9.43196 13.4211 9.47639 13.4091V12.9727C9.47639 12.6086 9.76056 12.3135 10.1112 12.3135C10.4618 12.3135 10.7459 12.6086 10.7459 12.9727V13.336C11.3827 13.4466 11.8324 13.7709 12.0493 14.0293C12.2796 14.3038 12.252 14.7202 11.9877 14.9593C11.7247 15.1973 11.3263 15.1701 11.0954 14.8993C11.0804 14.8833 10.9663 14.7685 10.7459 14.6896V16.9204C10.8659 16.9667 10.9857 17.0116 11.1034 17.0548C12.2603 17.4794 12.8792 18.5488 12.68 19.7792Z" fill="#304BAB"/>
<path d="M25.4749 15.3937C24.4407 15.2201 23.5351 14.5401 23.0583 13.5466C22.9935 13.4116 22.8587 13.3281 22.7134 13.3281H19.1304C18.985 13.3281 18.8502 13.4116 18.7854 13.5466C18.3087 14.5402 17.4031 15.2201 16.3688 15.3937C16.0675 15.4443 15.8438 15.7099 15.8438 16.0268V19.9514C15.8438 23.1312 17.7982 25.9446 20.6806 26.959C20.8369 27.014 21.0069 27.014 21.1632 26.959C24.0455 25.9447 26 23.1312 26 19.9514V16.0268C26 15.7099 25.7762 15.4443 25.4749 15.3937ZM23.615 19.2513L20.7424 22.2344C20.5936 22.3888 20.3987 22.4661 20.2038 22.4661C20.0089 22.4661 19.8139 22.3889 19.6652 22.2344L18.2289 20.7428C17.9314 20.4339 17.9314 19.9331 18.2289 19.6242C18.5263 19.3153 19.0086 19.3153 19.3061 19.6242L20.2038 20.5564L22.5378 18.1326C22.8353 17.8237 23.3176 17.8237 23.6151 18.1326C23.9124 18.4416 23.9124 18.9424 23.615 19.2513Z" fill="#304BAB"/>
</svg>

<svg width="26" height="27" viewBox="0 0 26 27" fill="none" xmlns="http://www.w3.org/2000/svg"><path d="M7.617 6.697h5.078a.76.76 0 00.614-.321c1.109-1.539 1.671-3.24 1.671-5.058V.791c0-.437-.34-.791-.761-.791-1.411 0-3.251.949-4.063 1.41C9.345.95 7.504 0 6.094 0c-.42 0-.762.354-.762.791v.527c0 1.818.563 3.52 1.672 5.058a.758.758 0 00.613.321zm3.129 11.627v2.24c.389-.219.62-.622.682-1.003.044-.273.062-.927-.682-1.237zm-1.652-2.855c-.054.294.015.568.174.698.063.05.133.1.208.15v-1.49a1.027 1.027 0 00-.382.642z" fill="#304BAB"/><path d="M14.32 19.951v-3.924c0-1.097.76-2.02 1.806-2.195a1.77 1.77 0 001.27-.942c-1.091-1.567-2.376-3.026-3.65-4.374a.748.748 0 00-.543-.237H7.11a.75.75 0 00-.543.237C3.319 11.951 0 16.113 0 20.936v.056C.007 24.305 2.645 27 5.881 27h8.55c.905 0 1.763-.21 2.53-.587-1.651-1.655-2.64-3.968-2.64-6.462zm-1.64-.172a2.785 2.785 0 01-.816 1.564 2.5 2.5 0 01-1.118.622v.5a.647.647 0 01-.635.659.647.647 0 01-.635-.66v-.437c-.531-.046-.969-.192-1.591-.614A.675.675 0 017.7 20.5a.62.62 0 01.879-.19c.36.244.59.348.896.39v-2.895a4.778 4.778 0 01-.991-.6c-.536-.438-.781-1.196-.639-1.98.155-.856.728-1.537 1.496-1.777l.134-.039v-.436c0-.364.285-.66.635-.66.35 0 .635.296.635.66v.363c.637.11 1.086.435 1.303.693a.677.677 0 01-.061.93.619.619 0 01-.893-.06.926.926 0 00-.35-.21v2.231c.12.047.24.092.358.135 1.157.424 1.776 1.494 1.577 2.724z" fill="#304BAB"/><path d="M25.475 15.394a3.3 3.3 0 01-2.417-1.847.383.383 0 00-.345-.219H19.13a.383.383 0 00-.345.219 3.3 3.3 0 01-2.416 1.847.636.636 0 00-.525.633v3.924c0 3.18 1.954 5.994 4.837 7.008a.726.726 0 00.482 0C24.046 25.945 26 23.131 26 19.951v-3.924a.636.636 0 00-.525-.633zm-1.86 3.857l-2.873 2.983a.746.746 0 01-1.077 0l-1.436-1.491a.813.813 0 010-1.119.742.742 0 011.077 0l.898.932 2.334-2.423a.742.742 0 011.077 0 .813.813 0 010 1.118z" fill="#304BAB"/></svg>
